X:1
T:Title
%%score ( 1 2 ) 3
L:1/8
Q:1/4=78
M:2/4
K:C
V:1 treble nm="French Horn, Soprano"
V:2 treble 
V:3 bass nm="Strings 1, Awake and Sing"
V:1
 [Ec][_EA]- [EA]/[=EG]/[EG] | [Ec][_EA]- [EA]/[=EG]/[EG] | [EG][EG] [EA][EB] | [Ec] [FB]3 | %4
w: By~Joseph~Lincoln~Hall * * * *||||
 [Fd][FA]- [FA]/[FG]/[FG] | [Fd][FA]- [FA]/[FG]/[FG] | [Fd][Fd] [E^c][Fd] | [F_e] [G=e]3 | %8
w: ||||
 [Ec][_EA]- [EA]/[=EG]/[EG] | [Ec][_EA]- [EA]/[=EG]/[EG] | GF ED | C [CA]3 | %12
w: ||||
 [FA][Fd]- [Fd]/[FA]/[FA] | [Fd][Ec]- [Ec]/[EG]/[EG] | [EG][FG] [F^G][FA] | [FB] [Ec]3 | %16
w: ||||
[M:4/4][Q:1/4=110] G2 G2- [CEG]2 [CEA]2 | [CEB]2 c2- [DFc]2 B2- | [DFB]2 G2- [DFG]2 [DFd]2 | %19
w: |||
 [DFB]2 A2- [C_EA]2 G2- | [CEG]2 G2- [CEG]2 [CEA]2 | z2 [FA]2 z2 A2- | A2 A4 z2 | %23
w: ||||
 [D^Fc]2 [=FGBe]2 [FGBd]2 [FGB]2 | [Gg]2 [Gg]4 [Aa]2 | [Bb]2 [cc']4 [Bb]2- | [Bb]2 [Gg]4 [dd']2 | %27
w: ||||
 [Bb]2 [Aa]4 [Gg]2- | [Gg]2 [Gg]4 [cc']2 | [ec']2 [ec']4 [dd']2 | [cc']2 [Bc']2 [Bb]2 [Aa]2 | %31
w: ||||
 [Bb]2 [cc']6- | [cc']4 z4 |] %33
w: ||
V:2
 x4 | x4 | x4 | x4 | x4 | x4 | x4 | x4 | x4 | x4 | x4 | x4 | x4 | x4 | x4 | x4 | %16
[M:4/4] z2 [CE]2 z4 | z2 [DF]2 z2 [DF]2 | z2 [DF]2 z4 | z2 [C_E]2 z2 [C=E]2 | z2 [CE]2 z4 | %21
 [CEB]2 d2- [FAd]2 F2 | F2 [D^F]2 [DF]2 [DFB]2 | x8 | x8 | x8 | x8 | x8 | x8 | x8 | x8 | x8 | x8 |] %33
V:3
 [C,G,][C,^F,]- [C,F,]/[C,G,]/[C,G,] | [C,G,][C,^F,]- [C,F,]/[C,G,]/[C,G,] | %2
 [C,G,][C,G,] [C,G,][C,G,] | [C,G,] [D,G,]3 | [G,B,][G,C]- [G,C]/[G,B,]/[G,B,] | %5
 [G,B,][G,C]- [G,C]/[G,B,]/[G,B,] | [G,B,][G,B,] [G,_B,][G,=B,] | [G,B,] [C,C]3 | %8
 [C,G,][C,^F,]- [C,F,]/[C,G,]/[C,G,] | [C,G,][C,^F,]- [C,F,]/[C,G,]/[C,G,] | G,F, E,D, | %11
 C, [F,A,]3 | [F,C][D,D]- [D,D]/[D,D]/[D,D] | [D,D][G,C]- [G,C]/[G,C]/[G,C] | %14
 [G,C][G,B,] [G,B,][G,D] | [G,D] [C,C]3 |[M:4/4] z2 [C,G,]2 G,,2 [C,G,]2 | %17
 G,,2 [D,G,]2 G,,2 [D,G,]2 | G,,2 [D,G,]2 G,,2 [D,G,]2 | G,,2 [C,G,]2 G,,2 [C,G,]2 | %20
 G,,2 [C,G,]2 G,,2 [C,G,]2 | G,,2 D,2 [F,A,D]2 [F,A,D]2 | [F,A,D]2 [D,A,C]2 [D,A,C]2 [D,A,C]2 | %23
 [D,A,C]2 [G,B,]2 [G,B,]2[K:treble] [G,B,D]2 | [G,B,DF]2[K:bass] C,2 [G,CE]2 [G,CE]2 | %25
 [G,CE]2 D,2[K:treble] [G,B,DF]2 [G,B,DF]2 | [G,B,DF]2[K:bass] G,,2[K:treble] [G,B,DF]2 [G,B,DF]2 | %27
 [G,B,DF]2[K:bass] C,2 [F,C_E]2 [G,C=E]2 | [G,CE]2 C,2 [G,CE]2 [G,CE]2 | %29
 [G,CE]2 D,2 [F,A,D]2 [F,A,D]2 | [F,A,D]2 G,,2[K:treble] [G,B,DF]2 [G,B,DF]2 | %31
 [G,B,DF]2[K:bass] C,2 [A,CF]2 [G,CE]2- | [G,CE]4 z4 |] %33

